src/pages/Home/images/Linked.svg

<svg width="32" height="32" fill="none" xmlns="http://www.w3.org/2000/svg"><g clip-path="url(#a)"><path d="M16 0C7.163 0 0 7.163 0 16c0 8.836 7.163 16 16 16s16-7.164 16-16c0-8.837-7.163-16-16-16Z" fill="#BD1B7F"/><path d="M24.294 22.942v-6.137c0-3.288-1.755-4.818-4.096-4.818-1.889 0-2.735 1.039-3.206 1.768v-1.517h-3.558c.047 1.005 0 10.704 0 10.704h3.558v-5.978c0-.319.023-.639.117-.867.257-.639.842-1.301 1.825-1.301 1.288 0 1.803.981 1.803 2.42v5.727l3.557-.001ZM9.685 10.777c1.24 0 2.013-.823 2.013-1.85-.023-1.05-.773-1.849-1.99-1.849s-2.012.799-2.012 1.849c0 1.028.772 1.85 1.967 1.85h.022Zm1.779 12.165V12.238H7.907v10.704h3.557Z" fill="#fff"/></g><defs><clipPath id="a"><path fill="#fff" d="M0 0h32v32H0z"/></clipPath></defs></svg>

<svg width="32" height="32" viewBox="0 0 32 32" fill="none" xmlns="http://www.w3.org/2000/svg">
<g clip-path="url(#clip0_94_1483)">
<path d="M16 0C7.163 0 0 7.163 0 16C0 24.836 7.163 32 16 32C24.837 32 32 24.836 32 16C32 7.163 24.837 0 16 0Z" fill="#BD1B7F"/>
<path d="M24.294 22.942V16.805C24.294 13.517 22.539 11.987 20.198 11.987C18.309 11.987 17.463 13.026 16.992 13.755V12.238H13.434C13.481 13.243 13.434 22.942 13.434 22.942H16.992V16.964C16.992 16.645 17.015 16.325 17.109 16.097C17.366 15.458 17.951 14.796 18.934 14.796C20.222 14.796 20.737 15.777 20.737 17.216V22.943L24.294 22.942ZM9.68505 10.777C10.925 10.777 11.698 9.954 11.698 8.927C11.675 7.877 10.925 7.078 9.70805 7.078C8.49104 7.078 7.69604 7.877 7.69604 8.927C7.69604 9.955 8.46804 10.777 9.66304 10.777H9.68505ZM11.464 22.942V12.238H7.90704V22.942H11.464Z" fill="white"/>
</g>
<defs>
<clipPath id="clip0_94_1483">
<rect width="32" height="32" fill="white"/>
</clipPath>
</defs>
</svg>
